public/svgs/solid/arrow-right-from-bracket.svg

<svg xmlns="http://www.w3.org/2000/svg" viewBox="0 0 512 512"><!-- Font Awesome Pro 6.0.0-alpha2 by @fontawesome - https://fontawesome.com License - https://fontawesome.com/license (Commercial License) --><path d="M160 416H96C78.326 416 64 401.672 64 384V128C64 110.328 78.326 96 96 96H160C177.674 96 192 81.672 192 64S177.674 32 160 32H96C42.98 32 0 74.98 0 128V384C0 437.02 42.98 480 96 480H160C177.674 480 192 465.672 192 448S177.674 416 160 416ZM502.625 233.375L374.625 105.375C362.117 92.867 341.867 92.883 329.375 105.375C316.875 117.875 316.875 138.125 329.375 150.625L402.75 224H192C174.312 224 160 238.312 160 256S174.312 288 192 288H402.75L329.375 361.375C316.875 373.875 316.875 394.125 329.375 406.625S362.125 419.125 374.625 406.625L502.625 278.625C515.125 266.125 515.125 245.875 502.625 233.375Z"/></svg>

<svg xmlns="http://www.w3.org/2000/svg" viewBox="0 0 512 512"><!--! Font Awesome Pro 6.5.1 by @fontawesome - https://fontawesome.com License - https://fontawesome.com/license (Commercial License) Copyright 2023 Fonticons, Inc. --><path d="M502.6 278.6c12.5-12.5 12.5-32.8 0-45.3l-128-128c-12.5-12.5-32.8-12.5-45.3 0s-12.5 32.8 0 45.3L402.7 224 192 224c-17.7 0-32 14.3-32 32s14.3 32 32 32l210.7 0-73.4 73.4c-12.5 12.5-12.5 32.8 0 45.3s32.8 12.5 45.3 0l128-128zM160 96c17.7 0 32-14.3 32-32s-14.3-32-32-32L96 32C43 32 0 75 0 128L0 384c0 53 43 96 96 96l64 0c17.7 0 32-14.3 32-32s-14.3-32-32-32l-64 0c-17.7 0-32-14.3-32-32l0-256c0-17.7 14.3-32 32-32l64 0z"/></svg>
